X:1
T:Title
%%score { ( 1 3 ) | ( 2 4 ) }
L:1/8
M:4/4
K:Eb
V:1 treble nm="Grand Piano"
V:3 treble 
V:2 bass 
V:4 bass 
V:1
 z4 z2[Q:1/4=100] [CEG]2 | z2 G2 z4 | [D=B]6 [Gd]2 | [Ge]2 [CAe]2 [DAd]2 [Ec]=B | [EGc]6 d2 | %5
 e2 d2 c2 [CGB]2 | [CFA]6 [B,DF]2 | [B,EG]2 [CEA]2 [B,EG]2 .[B,DF]2 | [G,B,E]6 [B,EG]2 | %9
 [B,=EG]2 [CB]2 [A,CA]2 [B,DA]2 | [B,EG]6 [B,EG]2 | [CEG]2 [Ec]2 [DAc]2 .[DG=B]2 | %12
[M:7/4] [Ec]6 z2 z2 z4 |[M:4/4] [Fc]4 [Ec]4 |] %14
V:2
 z4 z2 C,2 | =B,,2 C,_B,, A,,2 [F,,A,F]2 | [G,,G,]6 [G,,=B,]2 | [C,C]2 A,,2 F,,2 z F | %4
 C,6[K:treble] [G,=B,G]2 | [CG]2[K:bass] [G,B,E]2 [A,E]2 =E,2 | F,6 B,,2 | E,2 A,,2 B,,2 z A, | %8
 E,6 E,_D, | C,2 [=E,G,]2 F,2 B,,2 | E,6 E,D, | C,B,, A,,2 F,,2 z F |[M:7/4] [C,G,]6 z2 z2 z4 | %13
[M:4/4] [F,A,]4 [C,G,]4 |] %14
V:3
 x8 | [DFA]2 ED [CEc]2 dc | x8 | z4 z2 G2 | x8 | x8 | x8 | x8 | x8 | x8 | x8 | x8 |[M:7/4] x14 | %13
[M:4/4] x8 |] %14
V:4
 x8 | x8 | x8 | z4 z2 G,,2 | x6[K:treble] x2 | x2[K:bass] x6 | x8 | z4 z2 B,,2 | x8 | x8 | x8 | %11
 z4 z2 G,,2 |[M:7/4] x14 |[M:4/4] x8 |] %14

